packages/core/src/svgs/tokens/mono/GOVI.svg

<svg width="24" height="24" viewBox="0 0 24 24" fill="none" xmlns="http://www.w3.org/2000/svg">
<path d="M6.99609 19.3841C7.07258 20.0195 7.70794 20.4136 8.55511 20.1547L20.6859 12.195C21.3036 11.7537 21.286 10.8713 20.433 10.3301L7.73736 2.07027C7.44321 1.88202 6.99609 2.0938 6.99609 2.44678V6.4296L14.7323 11.3772L6.99609 16.3248V19.3841Z" fill="white"/>
<path d="M16.9966 21.1489C16.9202 21.7844 16.32 22.1785 15.4611 21.9196L3.33032 14.1893C3.17119 14.0512 3.04815 13.8765 2.97194 13.68C2.89571 13.4836 2.8686 13.2715 2.89295 13.0622C2.91729 12.8528 2.99238 12.6527 3.11165 12.479C3.23094 12.3054 3.39082 12.1634 3.57741 12.0656L16.2847 3.83516C16.5907 3.64691 16.9966 3.8587 16.9966 4.21168V8.09449L9.14865 13.1422L16.9966 18.0897V21.1489Z" fill="white"/>
<path d="M13.3615 5.73535L9.65518 8.13563L13.3144 10.4536L16.9855 8.08269L13.3615 5.73535ZM14.2911 16.3896L10.573 14.0363L6.99609 16.2954V16.5248L10.5907 18.8193L14.2911 16.3896Z" fill="white"/>
</svg>

<svg xmlns="http://www.w3.org/2000/svg" width="24" height="24" fill="none" viewBox="0 0 24 24">
    <path fill="#fff" d="M6.996 19.384c.077.636.712 1.03 1.56.77l12.13-7.959c.618-.441.6-1.324-.253-1.865L7.737 2.07c-.294-.188-.74.024-.74.377V6.43l7.735 4.947-7.736 4.948z"/>
    <path fill="#fff" d="M16.997 21.149c-.077.635-.677 1.03-1.536.77l-12.13-7.73a1.294 1.294 0 0 1 .246-2.123l12.708-8.23c.306-.19.712.023.712.376v3.882l-7.848 5.048 7.848 4.948z"/>
    <path fill="#fff" d="m13.362 5.735-3.707 2.4 3.66 2.319 3.67-2.371zm.93 10.655-3.719-2.354-3.577 2.26v.229l3.595 2.294z"/>
</svg>
